X:1
T:Разбойника благоразумнаго
T:Разбойника благоразумнаго
T:Разбойника благоразумнаго
T:The Wise Thief
T:Aleksei Turenkov (1886-1958)
C:Aleksei Turenkov
%%score [ 1 2 3 ( 4 5 6 ) ]
L:1/8
Q:1/4=45
M:4/4
K:Eb
V:1 treble nm="Soprano" snm="S."
V:2 treble nm="Alto" snm="A."
V:3 treble-8 nm="Tenor" snm="T."
V:4 bass nm="Bass" snm="B."
V:5 bass 
V:6 bass 
V:1
"^Медленно"!p!!<(! c2!<)! | e3!>(! d c2 z c!>)! |!<(! c6!>(! c2!<)!!>)! | =B3 z!p! G2 G G | A6 G2 | %5
w: Раз-|бой- ни- ка, раз-|бой- ни-|ка бла- го- ра-|зум- на-|
 G4 z2 G2- | G2 F E D2 D2 | D3!pp! z G2 G2 |!<(! A4!>(! A2 B2!<)!!>)! | !breath!G4!<(! =B3 B!<)! | %10
w: го, бла-|* го- ра- зум- на-|го во е-|ди- ном ча-|се ра- е-|
 c2 d2 ((e3 d)) | c2 A2 G4 | (F4 D2) D2 | E3!pp! z!<(! E2 E2 | F4 G4 | A4 c4 | %16
w: ви спо- до- *|бил е- си|Го- * спо-|ди. И ме-|не дре-|вом крест-|
 c4!f! [cd]2 [cd]2!<)! | [=Bd]4 [_Be]2 [_de]2 |!ff! [ce]4 e2 [ef]2 | (([eg]4 [df]4)) | %20
w: ным про- све-|ти, про- све-|ти, и спа-|си *|
 !fermata![Be]8 |] %21
w: мя.|
V:2
 G2 | G2 A2 G2 z G | (^F4 G2) A2 | G3 z D2 D D | E4 D4 | C4 z2 E2 | C3 C C2 C2 | =B,3 z G2 G2 | %8
w: |||* бла- го- ра-|зум- на-|го, *|||
 A4 A2 B2 | !breath!G4 F3 F | E2 F2 (E2 F2) | E2 F2 E4 | C6 =B,2 | C3 z C2 C2 | D4 D4 | F4 G4 | %16
w: ||||||||
 G4 ^F2 F2 | G4 G2 B2 | A4 c2 _c2 | (B4 A4) | !fermata!G8 |] %21
w: |||||
V:3
 e2 | e2 f2 e2 z e | e6 e2 | d3 z =B2 B B | c4 =B4 | c4 z2 c2 | A3 G F2 ^F2 | G3 z G2 G2 | %8
 A4 A2 B2 | !breath!G4 d3 d | c2 =B2 (c2 B2) | G2 =B2 c4 | (F2 D2) G2 G2 | G3 z G2 G2 | B4 =B4 | %15
 c4 c4 | c4 [cd]2 [cd]2 | [=Bd]4 [_Be]2 [_de]2 | [ce]4 e2 [ef]2 | ([eg]4 [df]4) | !fermata![Be]8 |] %21
V:4
 C2 | C2 C2 C2 z C | (A,4 G,2) ^F,2 | G,3 z [G,,G,]2 [G,,G,] [G,,G,] | %4
w: |||* бла- го- ра-|
 (([G,,G,]2 [F,,F,]4)) [F,,F,]2 | [E,,E,]4!pp! [C,,C,]4 | F,,3 G,, A,,2 A,,2 | G,,3 z G,,2 G,,2 | %8
w: зум- * на-|го, бла-|го- ра- зум- на-|го во е-|
 A,,4 A,,2 B,,2 | G,,8 | G,,4 G,,4 | G,,2 G,,2 G,,2 G,, G,, | A,,4 G,,2 G,,2 | C,3 z C,2 C,2 | %14
w: ди- ном ча-|се|ра- е-|ви спо- до- бил е-|си гос- по-|ди. * *|
 x4 G,,4 | [F,,F,]4 [E,,E,]4 | [E,,E,]4 [D,,D,]2 [D,,D,]2 | G,4 [E,G,]2 [E,G,]2 | %18
w: ||||
 [A,,A,]4 [A,,A,]2 [A,,A,]2 | ([B,,B,]4 [B,,A,]4) | !fermata![E,,E,G,]8 |] %21
w: |||
V:5
 x2 | x8 | x8 | x8 | x8 | x8 | x8 | x8 | x8 | x8 | x8 | x8 | x8 | x8 | B,,4 (G,,2 G,2) | x8 | x8 | %17
 x8 | x8 | x8 | x8 |] %21
V:6
 x2 | x8 | x8 | x8 | x8 | x8 | x8 | x8 | x8 | x8 | x8 | x8 | x8 | x8 | x8 | x8 | x8 | %17
 G,,2 F,,2 E,,2 E,,2 | x8 | x8 | x8 |] %21

